X:1
T:Old 137th, CMD
T:Day’s Psalter, 1553
T:Old 137th, CMD
T:Public Domain
C:Day&#8217;s Psalter, 1553
Z:Public Domain
%%score ( 1 2 ) ( 3 4 )
L:1/8
M:none
K:G
V:1 treble 
V:2 treble 
V:3 bass 
V:4 bass 
V:1
 [DG]2 [CF][CE] D2 [EG]2 | [DB]2 [DA]2 [B,G]4 | [EG]2 [FA][GB] [Gc]2 [FA]2 | %3
 [GB]4 [GB]2 [FA][EG] [^DF]2 E=D | [DE][^CE] D4 D2 | [EG]3 [EA] B2 z C x | [B,G]4 [B,D]4 | %7
 [EG]3 [FA] [GB]2 G2 | [Gc]3 [Gc] [GB]4 | [B,G]2 E[^DF] EG-GF | G4 [DG]4 | %11
 [GB][Gc][Fd][Gd] [Ge]3 [Ge] | [Gd]4 [GB]2 [EA][GB] | [Ac]2 [FA]2 G4 |] %14
V:2
 x4 D2 x2 | x8 | x8 | x10 G2 | x2 D4 D2 | x4 D3 A2 | x8 | x6 G2 | x8 | x2 E G2 A2 x | G4 x4 | x8 | %12
 x8 | x4 G4 |] %14
V:3
 [G,,B,]2 [A,,A,][A,,C] [B,,G,]2 [C,G,]2 | [D,G,]2 [D,F,]2 [G,,G,]4 | %2
 [E,B,]2 [D,D][G,D] [C,E]2 [D,D]2 | [G,D]4 [G,D]2 [D,D][E,B,] [B,,B,]2 [E,B,]2 | %4
 [A,,A,][A,,A,] [D,F,]4 [B,,G,]2 | [E,B,]3 [C,C] [D,G,]2 [D,F,]2 x | [G,,G,]4 G,4 | %7
 [E,B,]3 [D,D] [G,D]2 [E,E]2 | [C,E]3 [E,E] [G,D]4 | [E,E]2 [C,G,][B,,B,] [E,B,]2 [D,D]2 | %10
 [G,B,]4 [G,B,]4 | [G,D][E,G,][D,A,][B,,D] [C,C]3 [C,C] | [G,B,]4 [G,D]2 [C,C][B,,D] | %13
 [A,,E]2 DC [G,,B,]4 |] %14
V:4
 x8 | x8 | x8 | x12 | x8 | x9 | x4 G,4 | x8 | x8 | x8 | x8 | x8 | x8 | x2 D,2 x4 |] %14

